X: 3118
Q:"Reel."
M: C
L: 1/8
K: A
a2 |\
e2 A/A/A AGEF | =G2(AF) GFED |\
(cd) |\
ea a/a/a (b/a/=g) ef | =gfaf gfeB |\
dBcd efaf | edcB A2 :|


